src/Pure-Dark/16/symbolic/status/task-due-symbolic.svg

<?xml version="1.0" encoding="UTF-8" standalone="no"?>
<svg
   width="16"
   height="16"
   enable-background="new 0 0 64 64"
   version="1.1"
   viewBox="0 0 16 16"
   id="svg3"
   sodipodi:docname="task-due-symbolic.svg"
   inkscape:version="1.4.2 (ebf0e940d0, 2025-05-08)"
   xmlns:inkscape="http://www.inkscape.org/namespaces/inkscape"
   xmlns:sodipodi="http://sodipodi.sourceforge.net/DTD/sodipodi-0.dtd"
   xmlns="http://www.w3.org/2000/svg"
   xmlns:svg="http://www.w3.org/2000/svg">
  <defs
     id="defs3">
     <style
        id="current-color-scheme"
        type="text/css">
        .ColorScheme-Text { color:#f2f2f2; }
        .ColorScheme-NeutralText { color:#f67400; }
        .ColorScheme-PositiveText { color:#37c837; }
        .ColorScheme-NegativeText { color:#f44336; }
        .ColorScheme-Highlight { color:#3daee9; }
     </style>
  </defs>
  <sodipodi:namedview
     id="namedview3"
     pagecolor="#ffffff"
     bordercolor="#000000"
     borderopacity="0.25"
     inkscape:showpageshadow="2"
     inkscape:pageopacity="0.0"
     inkscape:pagecheckerboard="0"
     inkscape:deskcolor="#d1d1d1"
     inkscape:zoom="49.6875"
     inkscape:cx="8"
     inkscape:cy="8"
     inkscape:window-width="1920"
     inkscape:window-height="1010"
     inkscape:window-x="0"
     inkscape:window-y="0"
     inkscape:window-maximized="1"
     inkscape:current-layer="svg3" />
  <path
     id="path1"
     style="fill:currentColor"
     class="ColorScheme-Text"
     d="M 8 0 C 6.8954 0 6 0.89543 6 2 L 4 2 L 4 2.0058594 C 2.887 2.0384386 2 2.9392969 2 4.0605469 L 2 12.939453 C 2 14.081453 2.9185769 15 4.0605469 15 L 8.1152344 15 C 8.1363994 14.94911 8.1612581 14.898902 8.1894531 14.849609 L 8.671875 14 L 4 14 C 3.446 14 3 13.554 3 13 L 3 4 C 3 3.446 3.446 3 4 3 L 5 3 L 5 4 L 11 4 L 11 3 L 12 3 C 12.554 3 13 3.446 13 4 L 13 8.8183594 C 13.308953 8.9331095 13.57571 9.1531692 13.746094 9.4472656 L 13.75 9.4511719 L 14 9.8925781 L 14 4.0605469 C 14 2.9185469 13.081423 2 11.939453 2 L 10 2 C 10 1.862 9.99475 1.72375 9.96875 1.59375 C 9.7726 0.66339 8.9509 -0.0018 8 0 z M 7.9882812 1 C 7.9921875 0.99997711 7.9960936 0.99997711 8 1 C 8.414 1 8.75425 1.266 8.90625 1.625 C 8.963141 1.74216 8.995066 1.86986 9 2 C 8.999939 2.88813 7.928375 3.3351975 7.296875 2.7109375 C 6.665305 2.0866775 7.1002113 1.0104 7.9882812 1 z M 5 6 L 5 7 L 11 7 L 11 6 L 5 6 z M 5 8 L 5 9 L 11 9 L 11 8 L 5 8 z M 5 10 L 5 11 L 8 11 L 8 10 L 5 10 z " />
  <path
     id="path2"
     style="fill:currentColor"
     class="ColorScheme-NeutralText warning"
     d="M 12.478516 9.7285156 A 0.443 0.443 0 0 0 12.119141 9.9492188 L 9.0585938 15.345703 A 0.437 0.437 0 0 0 9.4375 16 L 15.5625 16 A 0.437 0.437 0 0 0 15.941406 15.345703 L 12.880859 9.9492188 A 0.442 0.442 0 0 0 12.480469 9.7285156 L 12.478516 9.7285156 z M 11.998047 11 L 12.998047 11 L 12.998047 11.167969 C 12.998047 11.515969 12.982172 11.835 12.951172 12.125 C 12.921172 12.415 12.881938 12.706 12.835938 13 L 12.169922 13 A 12.898 12.898 0 0 1 12.044922 12.125 A 9.146 9.146 0 0 1 11.998047 11.167969 L 11.998047 11 z M 12.498047 14 A 0.5 0.5 0 0 1 12.498047 15 A 0.5 0.5 0 0 1 12.498047 14 z " />
</svg>

<svg width="16" height="16" version="1.1" xmlns="http://www.w3.org/2000/svg">
 <path d="m8 0a2.008 2.008 0 0 0-1.992 2h-1c-0.657 0-1.178 0.06-1.617 0.225-0.439 0.164-0.79 0.461-0.998 0.838-0.415 0.752-0.37 1.673-0.385 2.931v5.012c0.015 1.258-0.03 2.179 0.385 2.932 0.208 0.376 0.56 0.673 0.998 0.838 0.439 0.164 0.96 0.224 1.617 0.224h3.133c0.021-0.05 0.031-0.102 0.059-0.15l0.482-0.85h-3.674c-0.592 0-1.006-0.063-1.265-0.16-0.26-0.098-0.372-0.203-0.473-0.387-0.202-0.366-0.247-1.194-0.262-2.453v-5c0.015-1.259 0.06-2.087 0.262-2.453 0.101-0.184 0.213-0.29 0.473-0.387 0.26-0.098 0.673-0.16 1.265-0.16v0.999h6v-0.999c0.593 0 1.006 0.063 1.266 0.16 0.26 0.098 0.371 0.203 0.472 0.387 0.202 0.366 0.247 1.194 0.262 2.453v2.832c0.31 0.115 0.582 0.323 0.752 0.62v1e-3l0.248 0.438v-3.897c-0.015-1.258 0.031-2.179-0.385-2.932a1.88 1.88 0 0 0-0.998-0.837c-0.438-0.165-0.96-0.225-1.617-0.225h-1.004a2.008 2.008 0 0 0-1.992-2zm0.01 1c0.559 0 1 0.442 1 1a0.99 0.99 0 0 1-1 1 0.982 0.982 0 0 1-0.922-0.61 1.01 1.01 0 0 1-0.077-0.39c0-0.558 0.441-1 1-1zm-3.002 5v1h6.012v-1zm0 2v1h6.012v-1zm-0.01 2v1h3v-1z" color="#000000" fill="#f2f2f2" font-family="sans-serif" font-weight="400" overflow="visible" style="isolation:auto;mix-blend-mode:normal;text-decoration-color:#000000;text-decoration-line:none;text-decoration-style:solid;text-indent:0;text-transform:none"/>
 <path class="warning" d="m12.488 9.729a0.443 0.443 0 0 0-0.36 0.22l-3.061 5.397a0.437 0.437 0 0 0 0.379 0.654h6.125a0.437 0.437 0 0 0 0.379-0.654l-3.059-5.397a0.442 0.442 0 0 0-0.402-0.22zm-0.48 1.271h1v0.168c0 0.348-0.016 0.667-0.047 0.957-0.03 0.29-0.069 0.581-0.115 0.875h-0.666a12.898 12.898 0 0 1-0.125-0.875 9.146 9.146 0 0 1-0.047-0.957zm0.5 3a0.5 0.5 0 1 1 0 1 0.5 0.5 0 0 1 0-1z" color="#000000" fill="#fdc92b" fill-rule="evenodd" font-family="sans-serif" font-weight="400" overflow="visible" style="isolation:auto;mix-blend-mode:normal;text-decoration-color:#000000;text-decoration-line:none;text-decoration-style:solid;text-indent:0;text-transform:none"/>
</svg>
